X:232
T: ZWEI SAERGE EINSAM STEHEN
N: B0280
O: Europa, Mitteleuropa, Deutschland
R: Stimmungs - Lied, Tauer, Toten - Klage
M: 4/4
L: 1/8
K: E
B,2 | B3A=G2F2 | E3F=G2
AA | B2AB=c3A | B4z2
ee | =d3=cA2AA | B3A=G2
FF | E2EF=G2F2 | E4z2

